dist/images/icons/css.svg

<svg width="38" height="45" viewBox="0 0 38 45" fill="none" xmlns="http://www.w3.org/2000/svg">
<path d="M0 0.375L3.32031 39.0469L18.75 44.125L34.082 39.0469L37.5 0.375H0ZM30.5664 8.1875L30.0781 12.875L18.8477 17.6602H18.75H29.6875L28.418 32.0156L18.8477 34.75L9.17969 31.918L8.59375 24.6914H13.2812L13.6719 28.5L18.75 29.7695L24.1211 28.3047L24.5117 22.25L8.20312 22.1523L7.91016 17.6602L18.8477 13.0703L19.4336 12.875H7.42188L6.83594 8.1875H30.5664Z" fill="#fff"/>
</svg>

<svg width="38" height="45" fill="none" xmlns="http://www.w3.org/2000/svg"><path d="M0 .375l3.32 38.672 15.43 5.078 15.332-5.078L37.5.375H0zm30.566 7.813l-.488 4.687-11.23 4.785h-.098 10.938l-1.27 14.356-9.57 2.734-9.668-2.832-.586-7.227h4.687l.39 3.809 5.079 1.27 5.371-1.465.39-6.055-16.308-.098-.293-4.492 10.938-4.59.586-.195H7.422l-.586-4.688h23.73z" fill="#fff"/></svg>
